Sources/FrostedUI/Resources/Icons.xcassets/cubeDisconnected32.imageset/cube-disconnected-32.svg

<svg width="32" height="32" viewBox="0 0 32 32" fill="none" xmlns="http://www.w3.org/2000/svg" data-fui-icon="true">
  <path
    fill-rule="evenodd"
    clip-rule="evenodd"
    d="M14.5499 3.42363C14.9861 3.14693 15.4921 3 16.0086 3C16.5252 3 17.0312 3.14693 17.4674 3.42363L26.4551 9.12469C27.1057 9.53737 27.4999 10.2542 27.4999 11.0247V20.9753C27.4999 21.7458 27.1057 22.4626 26.4551 22.8753L17.4674 28.5764C17.0312 28.8531 16.5252 29 16.0086 29C15.4921 29 14.9861 28.8531 14.5499 28.5764L5.56214 22.8753C4.91154 22.4626 4.51733 21.7458 4.51733 20.9753V11.0247C4.51733 10.2542 4.91154 9.53737 5.56214 9.12469L14.5499 3.42363ZM16.0086 1.5C15.2075 1.5 14.4229 1.72785 13.7464 2.15697L4.75867 7.85802C3.67435 8.54583 3.01733 9.74062 3.01733 11.0247V20.9753C3.01733 22.2594 3.67435 23.4542 4.75867 24.142L13.7464 29.843C14.4229 30.2721 15.2075 30.5 16.0086 30.5C16.8098 30.5 17.5943 30.2721 18.2708 29.843L27.2586 24.142C28.3429 23.4542 28.9999 22.2594 28.9999 20.9753V11.0247C28.9999 9.74062 28.3429 8.54583 27.2586 7.85802L18.2708 2.15697C17.5943 1.72785 16.8098 1.5 16.0086 1.5ZM23.4862 12.4849L16.7492 16.131V24.1123C16.7492 24.5265 16.4134 24.8623 15.9992 24.8623C15.585 24.8623 15.2492 24.5265 15.2492 24.1123V16.1255L8.5223 12.4849C8.15801 12.2877 8.02252 11.8326 8.21968 11.4683C8.41683 11.104 8.87196 10.9685 9.23625 11.1657L16.0043 14.8285L22.7723 11.1657C23.1366 10.9685 23.5917 11.104 23.7889 11.4683C23.986 11.8326 23.8505 12.2877 23.4862 12.4849Z"
    fill="currentColor"
  />
</svg>

<svg xmlns="http://www.w3.org/2000/svg" width="32" height="32" fill="none" data-fui-icon="true" viewBox="0 0 32 32"><path fill="currentColor" fill-rule="evenodd" d="M14.55 3.424a2.72 2.72 0 0 1 2.917 0l8.988 5.7a2.25 2.25 0 0 1 1.045 1.9v9.951a2.25 2.25 0 0 1-1.045 1.9l-8.988 5.701a2.72 2.72 0 0 1-2.917 0l-8.988-5.7a2.25 2.25 0 0 1-1.045-1.9v-9.951c0-.77.395-1.488 1.045-1.9zM16.009 1.5c-.802 0-1.586.228-2.263.657L4.76 7.858a3.75 3.75 0 0 0-1.742 3.167v9.95a3.75 3.75 0 0 0 1.742 3.167l8.987 5.701a4.22 4.22 0 0 0 4.525 0l8.988-5.701a3.75 3.75 0 0 0 1.74-3.167v-9.95a3.75 3.75 0 0 0-1.74-3.167L18.27 2.157a4.2 4.2 0 0 0-2.262-.657m7.477 10.985L16.75 16.13v7.981a.75.75 0 0 1-1.5 0v-7.986l-6.727-3.641a.75.75 0 0 1 .714-1.32l6.768 3.664 6.768-3.663a.75.75 0 1 1 .714 1.319" clip-rule="evenodd"/></svg>
